;FLAVOR:Marlin
;TIME:16639
;Filament used: 17.5179m
;Layer height: 0.3
;MINX:20.637
;MINY:33.439
;MINZ:0.3
;MAXX:179.681
;MAXY:183.166
;MAXZ:11.7
;Generated with Cura_SteamEngine 5.2.1
M82 ;absolute extrusion mode
;Profil Homepage: https://github.com/NilsRo/Cura_Anycubic_MegaS_Profile

;Slicer Information - (Support for OctoPrint Slicer Estimator)
;Slicer info:material_guid;0ff92885-617b-4144-a03c-9989872454bc
;Slicer info:material_id;generic_pla_175
;Slicer info:material_brand;Generic
;Slicer info:material_name;PLA
;Slicer info:filament_cost;[0.0]
;Slicer info:material_bed_temperature;60
;Slicer info:material_bed_temperature_layer_0;60
;Slicer info:material_print_temperature;200
;Slicer info:material_print_temperature_layer_0;205
;Slicer info:material_flow;100
;Slicer info:layer_height;0.3
;Slicer info:machine_nozzle_size;0.4
;Slicer info:wall_thickness;1.2000000000000002
;Slicer info:speed_print;50.0
;Slicer info:speed_topbottom;25.0
;Slicer info:travel_speed;100.0
;Slicer info:support;0
;Slicer info:retraction_speed;30
;Slicer info:retraction_amount;6
;Slicer info:layer_height;0.3
;Slicer info:infill_pattern;grid
;Slicer info:infill_sparse_density;15
;Slicer info:cool_fan_enabled;True
;Slicer info:cool_fan_speed;100
;Slicer info:sliced_at;Tue 02-01-2024 00:16:15
G21                                        ; metric values 
G90                                        ; absolute positioning 
M82                                        ; set extruder to absolute mode 
M107                                       ; start with the fan off 
M140 S60   ; Start heating the bed 
G4 S60                                     ; wait 1 minute 
M104 S205 ; start heating the hot end 
M190 S60   ; wait for bed 
M109 S205 ; wait for hotend 
M300 S1000 P500                            ; BEEP heating done 
G28 X0 Y10 Z0                              ; move X/Y to min endstops 
M420 S1                                    ; Enable leveling 
M420 Z2.0                                  ; Set leveling fading height to 2 mm 
G0 Z0.15                                   ; lift nozzle a bit 
G92 E0                                     ; zero the extruded length 
G1 X50 E20 F500                            ; Extrude 20mm of filament in a 5cm line. 
G92 E0                                     ; zero the extruded length again 
G1 E-2 F500                                ; Retract a little 
G1 X50 F500                                ; wipe away from the filament line
G1 X100 F9000                              ; Quickly wipe away from the filament line
G92 E0
G92 E0
G1 F1800 E-6
;LAYER_COUNT:39
;LAYER:0
M106 S76.5
M205 X10 Y10
G1 F480 Z0.375
;MESH:gridfinity-test-tube-rack-side.stl(1)
G0 F6000 X68.37 Y58.254 Z0.375
M205 X8 Y8
;TYPE:WALL-INNER
G1 F480 Z0.3
G1 F1800 E0
G1 F1200 X68.19 Y57.559 E0.03582
G1 X68.19 Y42.895 E0.76741
G1 X68.393 Y42.188 E0.80411
G1 X68.534 Y41.949 E0.81795
G1 X69.124 Y41.363 E0.85944
G1 X70.049 Y41.118 E0.90718
G1 X71.32 Y41.324 E0.97141
G1 X72.075 Y42.083 E1.02482
G1 X72.291 Y42.939 E1.06887
G1 X72.29 Y57.568 E1.79871
G1 X72.072 Y58.397 E1.84148
G1 X71.357 Y59.117 E1.8921
G1 X70.43 Y59.361 E1.93993
G1 X69.355 Y59.186 E1.99426
G1 X69.026 Y59.016 E2.01274
G1 X68.602 Y58.596 E2.04251
G1 X68.514 Y58.495 E2.0492
G1 X68.37 Y58.254 E2.0632
M205 X10 Y10
G1 F1800 E-3.9368
G1 F480 Z0.375
G0 F6000 X69.328 Y41.722 Z0.375
M205 X8 Y8
G1 F480 Z0.3
G1 F1800 E2.0632
G1 F1200 X70.061 Y41.524 E2.10108
G1 X71.128 Y41.698 E2.15502
G1 X71.715 Y42.287 E2.19651
G1 X71.891 Y42.978 E2.23208
G1 X71.885 Y57.524 E2.95778
G1 X71.715 Y58.191 E2.99212
G1 X71.148 Y58.76 E3.0322
G1 X70.414 Y58.953 E3.07006
G1 X69.345 Y58.773 E3.12415
G1 X68.832 Y58.252 E3.16063
G1 X68.747 Y58.11 E3.16888
G1 X68.59 Y57.514 E3.19963
G1 X68.59 Y42.955 E3.92598
G1 X68.778 Y42.281 E3.96089
G1 X69.328 Y41.722 E4.00002
M205 X10 Y10
G1 F1800 E-1.99998
G1 F480 Z0.375
G0 F6000 X71.351 Y42.499 Z0.375
M205 X8 Y8
;TYPE:WALL-OUTER
G1 F480 Z0.3
G1 F1800 E4.00002
G1 F1200 X71.489 Y43.009 E4.02638
G1 X71.489 Y57.469 E4.74779
G1 X71.351 Y57.979 E4.77415
G1 X70.95 Y58.393 E4.8029
G1 X70.399 Y58.545 E4.83142
G1 X69.553 Y58.407 E4.87418
G1 X69.15 Y58.009 E4.90244
G1 X69.125 Y57.968 E4.90484
G1 X68.992 Y57.475 E4.93031
G1 X68.99 Y43.008 E5.65207
G1 X69.131 Y42.488 E5.67895
G1 X69.535 Y42.088 E5.70732
G1 X70.08 Y41.933 E5.73559
G1 X70.937 Y42.073 E5.77891
G1 X71.351 Y42.499 E5.80854
M205 X10 Y10
G0 F6000 X71.403 Y42.692
G1 F1800 E-0.19146
G1 F480 Z0.375
G0 F6000 X118.397 Y58.362 Z0.375
M205 X8 Y8
;TYPE:WALL-INNER
G1 F480 Z0.3
G1 F1800 E5.80854
G1 F1200 X118.19 Y57.55 E5.85035
G1 X118.19 Y42.928 E6.57985
G1 X118.397 Y42.117 E6.6216
G1 X119.123 Y41.351 E6.67426
G1 X120.099 Y41.125 E6.72424
G1 X121.136 Y41.294 E6.77666
G1 X121.451 Y41.453 E6.79426
G1 X121.974 Y41.993 E6.83177
G1 X122.119 Y42.257 E6.84679
G1 X122.29 Y42.92 E6.88095
G1 X122.29 Y57.467 E7.6067
G1 X122.275 Y57.616 E7.61418
G1 X122.078 Y58.377 E7.65339
G1 X121.386 Y59.094 E7.70311
G1 X120.446 Y59.365 E7.75192
G1 X119.38 Y59.184 E7.80586
G1 X118.935 Y58.927 E7.8315
G1 X118.397 Y58.362 E7.87042
M205 X10 Y10
G1 F1800 E1.87042
G1 F480 Z0.375
G0 F6000 X119.329 Y41.716 Z0.375
M205 X8 Y8
G1 F480 Z0.3
G1 F1800 E7.87042
G1 F1200 X120.095 Y41.53 E7.90975
G1 X121.13 Y41.699 E7.96207
G1 X121.709 Y42.289 E8.00331
G1 X121.888 Y42.945 E8.03723
G1 X121.888 Y57.5 E8.76338
G1 X121.881 Y57.546 E8.76571
G1 X121.709 Y58.19 E8.79896
G1 X121.162 Y58.747 E8.83791
G1 X120.422 Y58.954 E8.87625
G1 X119.484 Y58.798 E8.92369
G1 X119.217 Y58.643 E8.93909
G1 X118.764 Y58.175 E8.97158
G1 X118.59 Y57.507 E9.00602
G1 X118.59 Y42.971 E9.73123
G1 X118.764 Y42.303 E9.76566
G1 X119.329 Y41.716 E9.80631
M205 X10 Y10
G1 F1800 E3.80631
G1 F480 Z0.375
G0 F6000 X119.126 Y57.97 Z0.375
M205 X8 Y8
;TYPE:WALL-OUTER
G1 F480 Z0.3
G1 F1800 E9.80631
G1 F1200 X118.992 Y57.472 E9.83204
G1 X118.992 Y43.006 E10.55375
G1 X119.133 Y42.481 E10.58087
G1 X119.556 Y42.076 E10.61009
G1 X120.123 Y41.94 E10.63918
G1 X120.925 Y42.071 E10.67972
G1 X121.352 Y42.489 E10.70953
G1 X121.49 Y43.017 E10.73676
G1 X121.487 Y57.476 E11.45812
G1 X121.352 Y57.988 E11.48454
G1 X120.945 Y58.397 E11.51333
G1 X120.393 Y58.544 E11.54183
G1 X119.541 Y58.404 E11.5849
G1 X119.126 Y57.97 E11.61486
M205 X10 Y10
G0 F6000 X119.074 Y57.777
G1 F1800 E5.61486
G1 F480 Z0.375
G0 F6000 X139.639 Y56.327 Z0.375
M205 X8 Y8
;TYPE:WALL-INNER
G1 F480 Z0.3
G1 F1800 E11.61486
G1 F1200 X139.923 Y56.104 E11.63287
G1 X140.39 Y55.989 E11.65687
G1 X141.94 Y55.989 E11.7342
G1 X141.94 Y46.039 E12.23061
G1 X141.94 Y44.489 E12.30794
G1 X140.191 Y44.489 E12.39519
G1 X139.793 Y44.292 E12.41735
G1 X139.482 Y43.911 E12.44189
G1 X139.393 Y43.578 E12.45908
G1 X139.39 Y34.239 E12.92501
G1 X122.494 Y34.239 E13.76795
G1 X121.911 Y34.53 E13.80046
G1 X119.533 Y35.764 E13.93412
G1 X117.122 Y36.898 E14.06705
G1 X113.102 Y38.516 E14.28324
G1 X108.991 Y39.835 E14.49864
G1 X104.84 Y40.821 E14.7115
G1 X102.697 Y41.194 E14.82002
G1 X100.525 Y41.474 E14.92928
G1 X97.274 Y41.719 E15.09193
G1 X93.99 Y41.747 E15.25577
G1 X91.842 Y41.648 E15.36305
G1 X89.749 Y41.463 E15.46788
G1 X87.635 Y41.185 E15.57426
G1 X85.555 Y40.825 E15.67957
G1 X81.396 Y39.835 E15.89286
G1 X77.373 Y38.549 E16.10357
G1 X74.954 Y37.619 E16.23287
G1 X72.877 Y36.743 E16.34533
G1 X69.305 Y36.716 E16.52354
G1 X68.189 Y36.844 E16.57959
G1 X67.228 Y37.179 E16.63036
G1 X66.38 Y37.711 E16.6803
G1 X65.661 Y38.431 E16.73107
G1 X65.13 Y39.277 E16.7809
G1 X64.793 Y40.24 E16.8318
G1 X64.674 Y41.298 E16.88492
G1 X64.673 Y59.185 E17.7773
G1 X64.793 Y60.237 E17.83013
G1 X65.13 Y61.2 E17.88103
G1 X65.661 Y62.047 E17.93091
G1 X66.38 Y62.766 E17.98163
G1 X67.228 Y63.299 E18.0316
G1 X68.188 Y63.634 E18.08233
G1 X69.322 Y63.763 E18.13927
G1 X72.877 Y63.735 E18.31664
G1 X74.981 Y62.849 E18.43053
G1 X77.372 Y61.929 E18.55835
G1 X81.471 Y60.622 E18.77299
G1 X85.498 Y59.667 E18.97947
G1 X87.693 Y59.283 E19.09064
G1 X89.77 Y59.013 E19.19514
G1 X91.883 Y58.828 E19.30096
G1 X93.99 Y58.731 E19.40619
G1 X97.274 Y58.759 E19.57003
G1 X100.525 Y59.005 E19.73269
G1 X102.705 Y59.287 E19.84236
G1 X104.84 Y59.657 E19.95046
G1 X108.99 Y60.643 E20.16327
G1 X113.102 Y61.962 E20.37871
G1 X117.07 Y63.563 E20.59218
G1 X119.568 Y64.731 E20.72976
G1 X120.035 Y64.981 E20.75619
G1 X121.976 Y65.984 E20.86519
G1 X122.484 Y66.239 E20.89355
G1 X139.39 Y66.239 E21.73699
G1 X139.393 Y56.9 E22.20291
G1 X139.639 Y56.327 E22.23402
M205 X10 Y10
G1 F1800 E16.23402
G1 F480 Z0.375
G0 F6000 X139.939 Y43.886 Z0.375
M205 X8 Y8
G1 F480 Z0.3
G1 F1800 E22.23402
G1 F1200 X139.792 Y43.542 E22.25269
G1 X139.79 Y33.839 E22.73677
G1 X122.4 Y33.839 E23.60436
G1 X121.727 Y34.175 E23.64189
G1 X119.363 Y35.402 E23.77477
G1 X116.952 Y36.536 E23.9077
G1 X112.979 Y38.135 E24.12136
G1 X108.943 Y39.434 E24.33289
G1 X104.733 Y40.434 E24.54877
G1 X102.604 Y40.804 E24.65658
G1 X100.527 Y41.072 E24.76106
G1 X97.257 Y41.319 E24.92467
G1 X93.981 Y41.347 E25.08812
G1 X91.877 Y41.249 E25.1932
G1 X89.78 Y41.063 E25.29823
G1 X87.703 Y40.791 E25.40274
G1 X85.624 Y40.431 E25.508
G1 X81.518 Y39.454 E25.71857
G1 X77.516 Y38.176 E25.92816
G1 X75.127 Y37.258 E26.05585
G1 X72.959 Y36.344 E26.17323
G1 X69.283 Y36.316 E26.35663
G1 X68.099 Y36.451 E26.41608
G1 X67.053 Y36.816 E26.47135
G1 X66.129 Y37.397 E26.52581
G1 X65.346 Y38.18 E26.58105
G1 X64.767 Y39.102 E26.63537
G1 X64.4 Y40.151 E26.69082
G1 X64.274 Y41.276 E26.74729
G1 X64.273 Y59.208 E27.64192
G1 X64.4 Y60.327 E27.69811
G1 X64.767 Y61.375 E27.75351
G1 X65.346 Y62.298 E27.80787
G1 X66.129 Y63.081 E27.86311
G1 X67.053 Y63.662 E27.91757
G1 X68.099 Y64.027 E27.97284
G1 X69.301 Y64.163 E28.03319
G1 X72.959 Y64.135 E28.21569
G1 X75.125 Y63.222 E28.33296
G1 X77.516 Y62.302 E28.46077
G1 X81.519 Y61.024 E28.67042
G1 X85.642 Y60.046 E28.88182
G1 X87.732 Y59.681 E28.98767
G1 X89.805 Y59.412 E29.09196
G1 X91.902 Y59.227 E29.19699
G1 X93.981 Y59.131 E29.30082
G1 X97.277 Y59.16 E29.46526
G1 X100.527 Y59.407 E29.62787
G1 X102.637 Y59.681 E29.73402
G1 X104.741 Y60.045 E29.84055
G1 X108.942 Y61.044 E30.05599
G1 X112.999 Y62.35 E30.26862
G1 X116.96 Y63.952 E30.48179
G1 X119.35 Y65.069 E30.6134
G1 X119.824 Y65.323 E30.64023
G1 X121.766 Y66.325 E30.74926
G1 X122.389 Y66.639 E30.78406
G1 X139.79 Y66.639 E31.6522
G1 X139.792 Y56.936 E32.13629
G1 X139.939 Y56.592 E32.15495
G1 X140.109 Y56.458 E32.16575
G1 X140.39 Y56.389 E32.18018
G1 X142.34 Y56.389 E32.27747
G1 X142.34 Y46.039 E32.79383
G1 X142.34 Y44.089 E32.89112
G1 X140.39 Y44.089 E32.98841
G1 X140.109 Y44.02 E33.00284
G1 X139.939 Y43.886 E33.01364
M205 X10 Y10
G0 F6000 X140.348 Y43.689
M205 X8 Y8
;TYPE:WALL-OUTER
G1 F1200 X140.19 Y43.507 E33.02566
G1 X140.19 Y33.439 E33.52796
G1 X122.306 Y33.439 E34.4202
G1 X121.543 Y33.82 E34.46274
G1 X119.193 Y35.04 E34.59484
G1 X116.782 Y36.174 E34.72777
G1 X112.857 Y37.754 E34.93886
G1 X108.806 Y39.057 E35.15116
G1 X104.665 Y40.04 E35.3635
G1 X102.552 Y40.407 E35.47049
G1 X100.465 Y40.676 E35.57548
G1 X97.247 Y40.919 E35.73648
G1 X93.999 Y40.947 E35.89853
G1 X91.912 Y40.851 E36.00276
G1 X89.832 Y40.667 E36.10694
G1 X87.771 Y40.397 E36.21064
G1 X85.681 Y40.034 E36.31647
G1 X81.64 Y39.073 E36.5237
G1 X77.66 Y37.802 E36.73214
G1 X75.265 Y36.882 E36.86014
G1 X73.041 Y35.944 E36.98056
G1 X69.262 Y35.916 E37.1691
G1 X68.009 Y36.059 E37.23202
G1 X66.879 Y36.453 E37.29173
G1 X65.878 Y37.082 E37.35071
G1 X65.031 Y37.929 E37.41047
G1 X64.404 Y38.928 E37.46931
G1 X64.008 Y40.061 E37.52919
G1 X63.874 Y41.254 E37.58908
G1 X63.873 Y59.23 E38.48591
G1 X64.008 Y60.417 E38.54551
G1 X64.404 Y61.549 E38.60534
G1 X65.031 Y62.549 E38.66423
G1 X65.878 Y63.396 E38.72399
G1 X66.879 Y64.025 E38.78297
G1 X68.009 Y64.419 E38.84267
G1 X69.28 Y64.563 E38.90649
G1 X73.041 Y64.534 E39.09413
G1 X75.269 Y63.596 E39.21474
G1 X77.671 Y62.672 E39.34313
G1 X81.655 Y61.401 E39.55177
G1 X85.694 Y60.443 E39.75886
G1 X87.797 Y60.076 E39.86537
G1 X89.84 Y59.81 E39.96815
G1 X91.92 Y59.627 E40.07233
G1 X94.011 Y59.531 E40.17676
G1 X97.247 Y59.559 E40.33821
G1 X100.475 Y59.804 E40.49972
G1 X102.569 Y60.075 E40.60506
G1 X104.685 Y60.442 E40.7122
G1 X108.82 Y61.425 E40.92425
G1 X112.87 Y62.729 E41.13652
G1 X116.79 Y64.314 E41.34747
G1 X119.19 Y65.436 E41.47964
G1 X119.667 Y65.692 E41.50665
G1 X121.617 Y66.699 E41.61614
G1 X122.295 Y67.039 E41.65398
G1 X140.19 Y67.039 E42.54677
G1 X140.19 Y56.971 E43.04906
G1 X140.348 Y56.789 E43.06109
G1 X142.74 Y56.789 E43.18043
G1 X142.74 Y46.039 E43.71675
G1 X142.74 Y43.689 E43.83399
G1 X140.348 Y43.689 E43.95333
M205 X10 Y10
G0 F6000 X140.217 Y43.538
G0 X139.757 Y44.719
M205 X8 Y8
;TYPE:SKIN
G1 F1200 X139.345 Y44.394 E43.97951
G1 X139.09 Y43.958 E44.0047
G1 X139.016 Y43.627 E44.02163
G1 X139.01 Y34.619 E44.47104
G1 X122.585 Y34.619 E45.29048
G1 X122.105 Y34.858 E45.31724
G1 X119.694 Y36.11 E45.45277
G1 X117.281 Y37.244 E45.58579
G1 X113.299 Y38.85 E45.8
G1 X109.08 Y40.205 E46.02108
G1 X104.912 Y41.195 E46.2348
G1 X102.677 Y41.583 E46.34798
G1 X100.623 Y41.847 E46.45129
G1 X97.297 Y42.098 E46.6177
G1 X93.977 Y42.127 E46.78334
G1 X91.805 Y42.027 E46.89182
G1 X89.729 Y41.843 E46.9958
G1 X87.637 Y41.57 E47.10105
G1 X85.474 Y41.197 E47.21056
G1 X81.289 Y40.201 E47.42518
G1 X77.236 Y38.904 E47.63748
G1 X74.841 Y37.984 E47.76548
G1 X72.8 Y37.123 E47.876
G1 X69.326 Y37.097 E48.04932
G1 X68.274 Y37.218 E48.10215
G1 X67.389 Y37.526 E48.1489
G1 X66.621 Y38.009 E48.19417
G1 X65.956 Y38.674 E48.24109
G1 X65.478 Y39.438 E48.28605
G1 X65.165 Y40.33 E48.33321
G1 X65.055 Y41.323 E48.38305
G1 X65.053 Y59.165 E49.2732
G1 X65.165 Y60.147 E49.32251
G1 X65.477 Y61.039 E49.36965
G1 X65.956 Y61.805 E49.41472
G1 X66.621 Y62.469 E49.46161
G1 X67.389 Y62.952 E49.50687
G1 X68.275 Y63.26 E49.55367
G1 X69.347 Y63.383 E49.6075
G1 X72.8 Y63.356 E49.77978
G1 X74.81 Y62.509 E49.8886
G1 X77.344 Y61.535 E50.02404
G1 X81.28 Y60.281 E50.23013
G1 X85.454 Y59.286 E50.44421
G1 X87.592 Y58.912 E50.55249
G1 X89.679 Y58.64 E50.65749
G1 X91.816 Y58.451 E50.76452
G1 X93.99 Y58.351 E50.8731
G1 X97.336 Y58.382 E51.04004
G1 X100.627 Y58.633 E51.2047
G1 X102.681 Y58.899 E51.30804
G1 X104.886 Y59.278 E51.41966
G1 X109.173 Y60.298 E51.63951
G1 X113.258 Y61.614 E51.85362
G1 X117.279 Y63.238 E52.06997
G1 X119.689 Y64.366 E52.20273
G1 X120.181 Y64.629 E52.23056
G1 X122.573 Y65.859 E52.36475
G1 X139.009 Y65.859 E53.18475
G1 X139.016 Y56.853 E53.63406
G1 X139.171 Y56.346 E53.66051
G1 X139.448 Y55.975 E53.68361
G1 X140.092 Y55.609 E53.72056
G1 X141.56 Y55.609 E53.7938
G1 X141.56 Y46.033 E54.27155
G1 X141.56 Y44.869 E54.32962
G1 X140.348 Y44.864 E54.39009
G1 X139.757 Y44.719 E54.42045
M205 X10 Y10
G1 F1800 E48.42045
G1 F480 Z0.375
G0 F6000 X118.802 Y59.341 Z0.375
M205 X8 Y8
G1 F480 Z0.3
G1 F1800 E54.42045
G1 F1200 X118.188 Y58.692 E54.46502
G1 X118.012 Y58.393 E54.48233
G1 X117.813 Y57.608 E54.52273
G1 X117.813 Y42.868 E55.25812
G1 X118.051 Y41.932 E55.3063
G1 X118.806 Y41.13 E55.36125
G1 X119.295 Y40.92 E55.3878
G1 X120.091 Y40.739 E55.42853
G1 X121.226 Y40.924 E55.4859
G1 X121.689 Y41.15 E55.51161
G1 X122.278 Y41.764 E55.55405
G1 X122.466 Y42.112 E55.57379
G1 X122.669 Y42.869 E55.61289
G1 X122.669 Y57.612 E56.34842
G1 X122.49 Y58.293 E56.38355
G1 X122.282 Y58.709 E56.40675
G1 X121.821 Y59.191 E56.44003
G1 X121.37 Y59.493 E56.46711
G1 X120.47 Y59.753 E56.51384
G1 X119.314 Y59.564 E56.57228
G1 X118.802 Y59.341 E56.60014
M205 X10 Y10
G1 F1800 E50.60014
G1 F480 Z0.375
G0 F6000 X71.607 Y41.07 Z0.375
M205 X8 Y8
G1 F480 Z0.3
G1 F1800 E56.60014
G1 F1200 X72.42 Y41.892 E56.65782
G1 X72.669 Y42.861 E56.70774
G1 X72.671 Y46.492 E56.88889
G1 X72.669 Y57.621 E57.44412
G1 X72.414 Y58.598 E57.49449
G1 X71.816 Y59.196 E57.53669
G1 X71.386 Y59.505 E57.5631
G1 X70.445 Y59.748 E57.61159
G1 X69.241 Y59.55 E57.67246
G1 X68.819 Y59.344 E57.69589
G1 X68.224 Y58.754 E57.7377
G1 X68.02 Y58.405 E57.75787
G1 X67.812 Y57.614 E57.79867
G1 X67.81 Y42.833 E58.5361
G1 X68.036 Y42.057 E58.57642
G1 X68.226 Y41.724 E58.59555
G1 X68.934 Y41.022 E58.64529
G1 X70.015 Y40.726 E58.70121
G1 X71.059 Y40.897 E58.75399
G1 X71.607 Y41.07 E58.78266
M205 X10 Y10
G1 F1800 E52.78266
G1 F480 Z0.375
G0 F6000 X66.992 Y62.466 Z0.375
M205 X8 Y8
G1 F480 Z0.3
