;FLAVOR:Marlin
;TIME:6081
;Filament used: 7.19219m
;Layer height: 0.3
;MINX:15.141
;MINY:17.664
;MINZ:0.3
;MAXX:190.541
;MAXY:193.064
;MAXZ:17.1
;Generated with Cura_SteamEngine 5.2.1
M82 ;absolute extrusion mode
;Profil Homepage: https://github.com/NilsRo/Cura_Anycubic_MegaS_Profile

;Slicer Information - (Support for OctoPrint Slicer Estimator)
;Slicer info:material_guid;0ff92885-617b-4144-a03c-9989872454bc
;Slicer info:material_id;generic_pla_175
;Slicer info:material_brand;Generic
;Slicer info:material_name;PLA
;Slicer info:filament_cost;[0.0]
;Slicer info:material_bed_temperature;60
;Slicer info:material_bed_temperature_layer_0;60
;Slicer info:material_print_temperature;200
;Slicer info:material_print_temperature_layer_0;205
;Slicer info:material_flow;100
;Slicer info:layer_height;0.3
;Slicer info:machine_nozzle_size;0.4
;Slicer info:wall_thickness;1.2000000000000002
;Slicer info:speed_print;50.0
;Slicer info:speed_topbottom;25.0
;Slicer info:travel_speed;100.0
;Slicer info:support;0
;Slicer info:retraction_speed;30
;Slicer info:retraction_amount;6
;Slicer info:layer_height;0.3
;Slicer info:infill_pattern;grid
;Slicer info:infill_sparse_density;15
;Slicer info:cool_fan_enabled;True
;Slicer info:cool_fan_speed;100
;Slicer info:sliced_at;Thu 11-01-2024 23:48:42
G21                                        ; metric values 
G90                                        ; absolute positioning 
M82                                        ; set extruder to absolute mode 
M107                                       ; start with the fan off 
M140 S60   ; Start heating the bed 
G4 S60                                     ; wait 1 minute 
M104 S205 ; start heating the hot end 
M190 S60   ; wait for bed 
M109 S205 ; wait for hotend 
M300 S1000 P500                            ; BEEP heating done 
G28 X0 Y10 Z0                              ; move X/Y to min endstops 
M420 S1                                    ; Enable leveling 
M420 Z2.0                                  ; Set leveling fading height to 2 mm 
G0 Z0.15                                   ; lift nozzle a bit 
G92 E0                                     ; zero the extruded length 
G1 X50 E20 F500                            ; Extrude 20mm of filament in a 5cm line. 
G92 E0                                     ; zero the extruded length again 
G1 E-2 F500                                ; Retract a little 
G1 X50 F500                                ; wipe away from the filament line
G1 X100 F9000                              ; Quickly wipe away from the filament line
G92 E0
G92 E0
G1 F1800 E-6
;LAYER_COUNT:57
;LAYER:0
M106 S76.5
M205 X10 Y10
G1 F480 Z0.375
;MESH:pic-frame-large-closure.stl
G0 F6000 X15.941 Y158.607 Z0.375
M205 X8 Y8
;TYPE:WALL-INNER
G1 F480 Z0.3
G1 F1800 E0
G1 F1200 X15.941 Y191.132 E1.62268
G1 X188.609 Y18.464 E13.80534
G1 X160.846 Y18.464 E15.19044
G1 X156.083 Y18.464 E15.42807
G1 X15.941 Y158.607 E25.31588
M205 X10 Y10
G0 F6000 X15.541 Y158.441
M205 X8 Y8
G1 F1200 X15.541 Y192.098 E26.99503
G1 X189.575 Y18.064 E39.27407
G1 X160.846 Y18.064 E40.70737
G1 X155.917 Y18.064 E40.95328
G1 X15.541 Y158.441 E50.8576
M205 X10 Y10
G0 F6000 X15.141 Y158.275
M205 X8 Y8
;TYPE:WALL-OUTER
G1 F1200 X15.141 Y193.064 E52.59323
G1 X190.541 Y17.664 E64.96864
G1 X160.846 Y17.664 E66.45013
G1 X155.751 Y17.664 E66.70432
G1 X15.141 Y158.275 E76.62515
M205 X10 Y10
G0 F6000 X15.141 Y158.475
G0 X16.321 Y158.765
M205 X8 Y8
;TYPE:SKIN
G1 F1200 X16.321 Y190.215 E78.1942
G1 X187.692 Y18.844 E90.28535
G1 X160.847 Y18.844 E91.62465
G1 X156.241 Y18.844 E91.85445
G1 X16.321 Y158.765 E101.72659
M205 X10 Y10
G1 F1800 E95.72659
G1 F480 Z0.375
G0 F6000 X16.858 Y189.392 Z0.375
M205 X8 Y8
G1 F480 Z0.3
G1 F1800 E101.72659
G1 F1200 X16.52 Y189.054 E101.75044
M205 X10 Y10
G0 F6000 X16.52 Y188.489
M205 X8 Y8
G1 F1200 X17.141 Y189.11 E101.79426
M205 X10 Y10
G0 F6000 X17.424 Y188.827
M205 X8 Y8
G1 F1200 X16.52 Y187.923 E101.85804
M205 X10 Y10
G0 F6000 X16.52 Y187.357
M205 X8 Y8
G1 F1200 X17.707 Y188.544 E101.94179
M205 X10 Y10
G0 F6000 X17.99 Y188.261
M205 X8 Y8
G1 F1200 X16.52 Y186.792 E102.04547
M205 X10 Y10
G0 F6000 X16.52 Y186.226
M205 X8 Y8
G1 F1200 X18.273 Y187.978 E102.16912
M205 X10 Y10
G0 F6000 X18.555 Y187.695
M205 X8 Y8
G1 F1200 X16.52 Y185.66 E102.3127
M205 X10 Y10
G0 F6000 X16.52 Y185.095
M205 X8 Y8
G1 F1200 X18.838 Y187.412 E102.47621
M205 X10 Y10
G0 F6000 X19.121 Y187.13
M205 X8 Y8
G1 F1200 X16.52 Y184.529 E102.65972
M205 X10 Y10
G0 F6000 X16.52 Y183.963
M205 X8 Y8
G1 F1200 X19.404 Y186.847 E102.86321
M205 X10 Y10
G0 F6000 X19.687 Y186.564
M205 X8 Y8
G1 F1200 X16.52 Y183.398 E103.08662
M205 X10 Y10
G0 F6000 X16.52 Y182.832
M205 X8 Y8
G1 F1200 X19.97 Y186.281 E103.33
M205 X10 Y10
G0 F6000 X20.252 Y185.998
M205 X8 Y8
G1 F1200 X16.52 Y182.266 E103.59331
M205 X10 Y10
G0 F6000 X16.52 Y181.7
M205 X8 Y8
G1 F1200 X20.535 Y185.715 E103.87659
M205 X10 Y10
G0 F6000 X20.818 Y185.433
M205 X8 Y8
G1 F1200 X16.52 Y181.135 E104.17984
M205 X10 Y10
G0 F6000 X16.52 Y180.569
M205 X8 Y8
G1 F1200 X21.101 Y185.15 E104.50305
M205 X10 Y10
G0 F6000 X21.384 Y184.867
M205 X8 Y8
G1 F1200 X16.52 Y180.003 E104.84624
M205 X10 Y10
G0 F6000 X16.52 Y179.438
M205 X8 Y8
G1 F1200 X21.667 Y184.584 E105.20935
M205 X10 Y10
G0 F6000 X21.95 Y184.301
M205 X8 Y8
G1 F1200 X16.52 Y178.872 E105.59243
M205 X10 Y10
G0 F6000 X16.52 Y178.306
M205 X8 Y8
G1 F1200 X22.232 Y184.018 E105.99544
M205 X10 Y10
G0 F6000 X22.515 Y183.736
M205 X8 Y8
G1 F1200 X16.52 Y177.741 E106.41842
M205 X10 Y10
G0 F6000 X16.52 Y177.175
M205 X8 Y8
G1 F1200 X22.798 Y183.453 E106.86137
M205 X10 Y10
G0 F6000 X23.081 Y183.17
M205 X8 Y8
G1 F1200 X16.52 Y176.609 E107.32428
M205 X10 Y10
G0 F6000 X16.52 Y176.044
M205 X8 Y8
G1 F1200 X23.364 Y182.887 E107.80713
M205 X10 Y10
G0 F6000 X23.647 Y182.604
M205 X8 Y8
G1 F1200 X16.52 Y175.478 E108.30994
M205 X10 Y10
G0 F6000 X16.52 Y174.912
M205 X8 Y8
G1 F1200 X23.929 Y182.321 E108.83269
M205 X10 Y10
G0 F6000 X24.212 Y182.038
M205 X8 Y8
G1 F1200 X16.52 Y174.347 E109.37536
M205 X10 Y10
G0 F6000 X16.52 Y173.781
M205 X8 Y8
G1 F1200 X24.495 Y181.756 E109.93804
M205 X10 Y10
G0 F6000 X24.778 Y181.473
M205 X8 Y8
G1 F1200 X16.52 Y173.215 E110.52069
M205 X10 Y10
G0 F6000 X16.52 Y172.65
M205 X8 Y8
G1 F1200 X25.061 Y181.19 E111.12327
M205 X10 Y10
G0 F6000 X25.344 Y180.907
M205 X8 Y8
G1 F1200 X16.52 Y172.084 E111.74581
M205 X10 Y10
G0 F6000 X16.52 Y171.518
M205 X8 Y8
G1 F1200 X25.626 Y180.624 E112.38829
M205 X10 Y10
G0 F6000 X25.909 Y180.341
M205 X8 Y8
G1 F1200 X16.52 Y170.952 E113.05074
M205 X10 Y10
G0 F6000 X16.52 Y170.387
M205 X8 Y8
G1 F1200 X26.192 Y180.059 E113.73315
M205 X10 Y10
G0 F6000 X26.475 Y179.776
M205 X8 Y8
G1 F1200 X16.52 Y169.821 E114.43553
M205 X10 Y10
G0 F6000 X16.52 Y169.255
M205 X8 Y8
G1 F1200 X26.758 Y179.493 E115.15787
M205 X10 Y10
G0 F6000 X27.041 Y179.21
M205 X8 Y8
G1 F1200 X16.52 Y168.69 E115.90015
M205 X10 Y10
G0 F6000 X16.52 Y168.124
M205 X8 Y8
G1 F1200 X27.324 Y178.927 E116.6624
M205 X10 Y10
G0 F6000 X27.606 Y178.644
M205 X8 Y8
G1 F1200 X16.52 Y167.558 E117.44457
M205 X10 Y10
G0 F6000 X16.52 Y166.993
M205 X8 Y8
G1 F1200 X27.889 Y178.362 E118.24672
M205 X10 Y10
G0 F6000 X28.172 Y178.079
M205 X8 Y8
G1 F1200 X16.52 Y166.427 E119.06883
M205 X10 Y10
G0 F6000 X16.52 Y165.861
M205 X8 Y8
G1 F1200 X28.455 Y177.796 E119.91091
M205 X10 Y10
G0 F6000 X28.738 Y177.513
M205 X8 Y8
G1 F1200 X16.52 Y165.296 E120.77292
M205 X10 Y10
G0 F6000 X16.52 Y164.73
M205 X8 Y8
G1 F1200 X29.021 Y177.23 E121.6549
M205 X10 Y10
G0 F6000 X29.303 Y176.947
M205 X8 Y8
G1 F1200 X16.52 Y164.164 E122.55681
M205 X10 Y10
G0 F6000 X16.52 Y163.599
M205 X8 Y8
G1 F1200 X29.586 Y176.664 E123.47865
M205 X10 Y10
G0 F6000 X29.869 Y176.382
M205 X8 Y8
G1 F1200 X16.52 Y163.033 E124.42049
M205 X10 Y10
G0 F6000 X16.52 Y162.467
M205 X8 Y8
G1 F1200 X30.152 Y176.099 E125.3823
M205 X10 Y10
G0 F6000 X30.435 Y175.816
M205 X8 Y8
G1 F1200 X16.52 Y161.901 E126.36408
M205 X10 Y10
G0 F6000 X16.52 Y161.336
M205 X8 Y8
G1 F1200 X30.718 Y175.533 E127.36579
M205 X10 Y10
G0 F6000 X31 Y175.25
M205 X8 Y8
G1 F1200 X16.52 Y160.77 E128.38743
M205 X10 Y10
G0 F6000 X16.52 Y160.204
M205 X8 Y8
G1 F1200 X31.283 Y174.967 E129.42904
M205 X10 Y10
G0 F6000 X31.566 Y174.685
M205 X8 Y8
G1 F1200 X16.52 Y159.639 E130.49062
M205 X10 Y10
G0 F6000 X16.52 Y159.073
M205 X8 Y8
G1 F1200 X31.849 Y174.402 E131.57216
M205 X10 Y10
G0 F6000 X32.132 Y174.119
M205 X8 Y8
G1 F1200 X16.689 Y158.676 E132.66175
M205 X10 Y10
G0 F6000 X16.972 Y158.394
M205 X8 Y8
G1 F1200 X32.415 Y173.836 E133.7513
M205 X10 Y10
G0 F6000 X32.698 Y173.553
M205 X8 Y8
G1 F1200 X17.255 Y158.111 E134.84085
M205 X10 Y10
G0 F6000 X17.538 Y157.828
M205 X8 Y8
G1 F1200 X32.98 Y173.27 E135.93037
M205 X10 Y10
G0 F6000 X33.263 Y172.988
M205 X8 Y8
G1 F1200 X17.821 Y157.545 E137.01992
M205 X10 Y10
G0 F6000 X18.104 Y157.262
M205 X8 Y8
G1 F1200 X33.546 Y172.705 E138.10947
M205 X10 Y10
G0 F6000 X33.829 Y172.422
M205 X8 Y8
G1 F1200 X18.386 Y156.979 E139.19906
M205 X10 Y10
G0 F6000 X18.669 Y156.696
M205 X8 Y8
G1 F1200 X34.112 Y172.139 E140.28865
M205 X10 Y10
G0 F6000 X34.395 Y171.856
M205 X8 Y8
G1 F1200 X18.952 Y156.414 E141.3782
M205 X10 Y10
G0 F6000 X19.235 Y156.131
M205 X8 Y8
G1 F1200 X34.677 Y171.573 E142.46772
M205 X10 Y10
G0 F6000 X34.96 Y171.29
M205 X8 Y8
G1 F1200 X19.518 Y155.848 E143.55723
M205 X10 Y10
G0 F6000 X19.801 Y155.565
M205 X8 Y8
G1 F1200 X35.243 Y171.008 E144.64679
M205 X10 Y10
G0 F6000 X35.526 Y170.725
M205 X8 Y8
G1 F1200 X20.083 Y155.282 E145.73637
M205 X10 Y10
G0 F6000 X20.366 Y154.999
M205 X8 Y8
G1 F1200 X35.809 Y170.442 E146.82596
M205 X10 Y10
G0 F6000 X36.092 Y170.159
M205 X8 Y8
G1 F1200 X20.649 Y154.717 E147.91551
M205 X10 Y10
G0 F6000 X20.932 Y154.434
M205 X8 Y8
G1 F1200 X36.374 Y169.876 E149.00503
M205 X10 Y10
G0 F6000 X36.657 Y169.593
M205 X8 Y8
G1 F1200 X21.215 Y154.151 E150.09454
M205 X10 Y10
G0 F6000 X21.498 Y153.868
M205 X8 Y8
G1 F1200 X36.94 Y169.311 E151.1841
M205 X10 Y10
G0 F6000 X37.223 Y169.028
M205 X8 Y8
G1 F1200 X21.781 Y153.585 E152.27365
M205 X10 Y10
G0 F6000 X22.063 Y153.302
M205 X8 Y8
G1 F1200 X37.506 Y168.745 E153.36323
M205 X10 Y10
G0 F6000 X37.789 Y168.462
M205 X8 Y8
G1 F1200 X22.346 Y153.02 E154.45279
M205 X10 Y10
G0 F6000 X22.629 Y152.737
M205 X8 Y8
G1 F1200 X38.072 Y168.179 E155.54234
M205 X10 Y10
G0 F6000 X38.354 Y167.896
M205 X8 Y8
G1 F1200 X22.912 Y152.454 E156.63185
M205 X10 Y10
G0 F6000 X23.195 Y152.171
M205 X8 Y8
G1 F1200 X38.637 Y167.614 E157.72141
M205 X10 Y10
G0 F6000 X38.92 Y167.331
M205 X8 Y8
G1 F1200 X23.478 Y151.888 E158.81096
M205 X10 Y10
G0 F6000 X23.76 Y151.605
M205 X8 Y8
G1 F1200 X39.203 Y167.048 E159.90055
M205 X10 Y10
G0 F6000 X39.486 Y166.765
M205 X8 Y8
G1 F1200 X24.043 Y151.322 E160.99013
M205 X10 Y10
G0 F6000 X24.326 Y151.04
M205 X8 Y8
G1 F1200 X39.769 Y166.482 E162.07968
M205 X10 Y10
G0 F6000 X40.051 Y166.199
M205 X8 Y8
G1 F1200 X24.609 Y150.757 E163.1692
M205 X10 Y10
G0 F6000 X24.892 Y150.474
M205 X8 Y8
G1 F1200 X40.334 Y165.916 E164.25872
M205 X10 Y10
G0 F6000 X40.617 Y165.634
M205 X8 Y8
G1 F1200 X25.175 Y150.191 E165.34827
M205 X10 Y10
G0 F6000 X25.457 Y149.908
M205 X8 Y8
G1 F1200 X40.9 Y165.351 E166.43786
M205 X10 Y10
G0 F6000 X41.183 Y165.068
M205 X8 Y8
G1 F1200 X25.74 Y149.625 E167.52744
M205 X10 Y10
G0 F6000 X26.023 Y149.343
M205 X8 Y8
G1 F1200 X41.466 Y164.785 E168.61699
M205 X10 Y10
G0 F6000 X41.748 Y164.502
M205 X8 Y8
G1 F1200 X26.306 Y149.06 E169.70651
M205 X10 Y10
G0 F6000 X26.589 Y148.777
M205 X8 Y8
G1 F1200 X42.031 Y164.219 E170.79603
M205 X10 Y10
G0 F6000 X42.314 Y163.937
M205 X8 Y8
G1 F1200 X26.872 Y148.494 E171.88558
M205 X10 Y10
G0 F6000 X27.155 Y148.211
M205 X8 Y8
G1 F1200 X42.597 Y163.654 E172.97513
M205 X10 Y10
G0 F6000 X42.88 Y163.371
M205 X8 Y8
G1 F1200 X27.437 Y147.928 E174.06472
M205 X10 Y10
G0 F6000 X27.72 Y147.646
M205 X8 Y8
G1 F1200 X43.163 Y163.088 E175.15427
M205 X10 Y10
G0 F6000 X43.446 Y162.805
M205 X8 Y8
G1 F1200 X28.003 Y147.363 E176.24382
M205 X10 Y10
G0 F6000 X28.286 Y147.08
M205 X8 Y8
G1 F1200 X43.728 Y162.522 E177.33334
M205 X10 Y10
G0 F6000 X44.011 Y162.239
M205 X8 Y8
G1 F1200 X28.569 Y146.797 E178.42286
M205 X10 Y10
G0 F6000 X28.852 Y146.514
M205 X8 Y8
G1 F1200 X44.294 Y161.957 E179.51241
M205 X10 Y10
G0 F6000 X44.577 Y161.674
M205 X8 Y8
G1 F1200 X29.134 Y146.231 E180.60199
M205 X10 Y10
G0 F6000 X29.417 Y145.948
M205 X8 Y8
G1 F1200 X44.86 Y161.391 E181.69158
M205 X10 Y10
G0 F6000 X45.143 Y161.108
M205 X8 Y8
G1 F1200 X29.7 Y145.666 E182.78113
M205 X10 Y10
G0 F6000 X29.983 Y145.383
M205 X8 Y8
G1 F1200 X45.425 Y160.825 E183.87065
M205 X10 Y10
G0 F6000 X45.708 Y160.542
M205 X8 Y8
G1 F1200 X30.266 Y145.1 E184.96017
M205 X10 Y10
G0 F6000 X30.549 Y144.817
M205 X8 Y8
G1 F1200 X45.991 Y160.26 E186.04972
M205 X10 Y10
G0 F6000 X46.274 Y159.977
M205 X8 Y8
G1 F1200 X30.831 Y144.534 E187.1393
M205 X10 Y10
G0 F6000 X31.114 Y144.251
M205 X8 Y8
G1 F1200 X46.557 Y159.694 E188.22889
M205 X10 Y10
G0 F6000 X46.84 Y159.411
M205 X8 Y8
G1 F1200 X31.397 Y143.969 E189.31844
M205 X10 Y10
G0 F6000 X31.68 Y143.686
M205 X8 Y8
G1 F1200 X47.123 Y159.128 E190.408
M205 X10 Y10
G0 F6000 X47.405 Y158.845
M205 X8 Y8
G1 F1200 X31.963 Y143.403 E191.49751
M205 X10 Y10
G0 F6000 X32.246 Y143.12
M205 X8 Y8
G1 F1200 X47.688 Y158.563 E192.58706
M205 X10 Y10
G0 F6000 X47.971 Y158.28
M205 X8 Y8
G1 F1200 X32.529 Y142.837 E193.67662
M205 X10 Y10
G0 F6000 X32.811 Y142.554
M205 X8 Y8
G1 F1200 X48.254 Y157.997 E194.7662
M205 X10 Y10
G0 F6000 X48.537 Y157.714
M205 X8 Y8
G1 F1200 X33.094 Y142.272 E195.85575
M205 X10 Y10
G0 F6000 X33.377 Y141.989
M205 X8 Y8
G1 F1200 X48.82 Y157.431 E196.94531
M205 X10 Y10
G0 F6000 X49.102 Y157.148
M205 X8 Y8
G1 F1200 X33.66 Y141.706 E198.03482
M205 X10 Y10
G0 F6000 X33.943 Y141.423
M205 X8 Y8
G1 F1200 X49.385 Y156.865 E199.12434
M205 X10 Y10
G0 F6000 X49.668 Y156.583
M205 X8 Y8
G1 F1200 X34.226 Y141.14 E200.21389
M205 X10 Y10
G0 F6000 X34.508 Y140.857
M205 X8 Y8
G1 F1200 X49.951 Y156.3 E201.30348
M205 X10 Y10
G0 F6000 X50.234 Y156.017
M205 X8 Y8
G1 F1200 X34.791 Y140.574 E202.39306
M205 X10 Y10
G0 F6000 X35.074 Y140.292
M205 X8 Y8
G1 F1200 X50.517 Y155.734 E203.48262
M205 X10 Y10
G0 F6000 X50.799 Y155.451
M205 X8 Y8
G1 F1200 X35.357 Y140.009 E204.57213
M205 X10 Y10
G0 F6000 X35.64 Y139.726
M205 X8 Y8
G1 F1200 X51.082 Y155.168 E205.66165
M205 X10 Y10
G0 F6000 X51.365 Y154.886
M205 X8 Y8
G1 F1200 X35.923 Y139.443 E206.7512
M205 X10 Y10
G0 F6000 X36.205 Y139.16
M205 X8 Y8
G1 F1200 X51.648 Y154.603 E207.84079
M205 X10 Y10
G0 F6000 X51.931 Y154.32
M205 X8 Y8
G1 F1200 X36.488 Y138.877 E208.93038
M205 X10 Y10
G0 F6000 X36.771 Y138.595
M205 X8 Y8
G1 F1200 X52.214 Y154.037 E210.01993
M205 X10 Y10
G0 F6000 X52.497 Y153.754
M205 X8 Y8
G1 F1200 X37.054 Y138.312 E211.10948
M205 X10 Y10
G0 F6000 X37.337 Y138.029
M205 X8 Y8
G1 F1200 X52.779 Y153.471 E212.199
M205 X10 Y10
G0 F6000 X53.062 Y153.189
M205 X8 Y8
G1 F1200 X37.62 Y137.746 E213.28855
M205 X10 Y10
G0 F6000 X37.903 Y137.463
M205 X8 Y8
G1 F1200 X53.345 Y152.906 E214.3781
M205 X10 Y10
G0 F6000 X53.628 Y152.623
M205 X8 Y8
G1 F1200 X38.185 Y137.18 E215.46769
M205 X10 Y10
G0 F6000 X38.468 Y136.897
M205 X8 Y8
G1 F1200 X53.911 Y152.34 E216.55727
M205 X10 Y10
G0 F6000 X54.194 Y152.057
M205 X8 Y8
G1 F1200 X38.751 Y136.615 E217.64683
M205 X10 Y10
G0 F6000 X39.034 Y136.332
M205 X8 Y8
G1 F1200 X54.476 Y151.774 E218.73634
M205 X10 Y10
G0 F6000 X54.759 Y151.491
M205 X8 Y8
G1 F1200 X39.317 Y136.049 E219.82586
M205 X10 Y10
G0 F6000 X39.6 Y135.766
M205 X8 Y8
G1 F1200 X55.042 Y151.209 E220.91541
M205 X10 Y10
G0 F6000 X55.325 Y150.926
M205 X8 Y8
G1 F1200 X39.882 Y135.483 E222.005
M205 X10 Y10
G0 F6000 X40.165 Y135.2
M205 X8 Y8
G1 F1200 X55.608 Y150.643 E223.09458
M205 X10 Y10
G0 F6000 X55.891 Y150.36
M205 X8 Y8
G1 F1200 X40.448 Y134.918 E224.18414
M205 X10 Y10
G0 F6000 X40.731 Y134.635
M205 X8 Y8
G1 F1200 X56.173 Y150.077 E225.27365
M205 X10 Y10
G0 F6000 X56.456 Y149.794
M205 X8 Y8
G1 F1200 X41.014 Y134.352 E226.36317
M205 X10 Y10
G0 F6000 X41.297 Y134.069
M205 X8 Y8
G1 F1200 X56.739 Y149.512 E227.45272
M205 X10 Y10
G0 F6000 X57.022 Y149.229
M205 X8 Y8
G1 F1200 X41.58 Y133.786 E228.54227
M205 X10 Y10
G0 F6000 X41.862 Y133.503
