;FLAVOR:Marlin
;TIME:8943
;Filament used: 10.4303m
;Layer height: 0.3
;MINX:16.298
;MINY:25.877
;MINZ:0.3
;MAXX:193.834
;MAXY:203.413
;MAXZ:35.1
;Generated with Cura_SteamEngine 5.2.1
M82 ;absolute extrusion mode
;Profil Homepage: https://github.com/NilsRo/Cura_Anycubic_MegaS_Profile

;Slicer Information - (Support for OctoPrint Slicer Estimator)
;Slicer info:material_guid;0ff92885-617b-4144-a03c-9989872454bc
;Slicer info:material_id;generic_pla_175
;Slicer info:material_brand;Generic
;Slicer info:material_name;PLA
;Slicer info:filament_cost;[0.0]
;Slicer info:material_bed_temperature;60
;Slicer info:material_bed_temperature_layer_0;60
;Slicer info:material_print_temperature;200
;Slicer info:material_print_temperature_layer_0;205
;Slicer info:material_flow;100
;Slicer info:layer_height;0.3
;Slicer info:machine_nozzle_size;0.4
;Slicer info:wall_thickness;1.2000000000000002
;Slicer info:speed_print;50.0
;Slicer info:speed_topbottom;25.0
;Slicer info:travel_speed;100.0
;Slicer info:support;0
;Slicer info:retraction_speed;30
;Slicer info:retraction_amount;6
;Slicer info:layer_height;0.3
;Slicer info:infill_pattern;grid
;Slicer info:infill_sparse_density;15
;Slicer info:cool_fan_enabled;True
;Slicer info:cool_fan_speed;100
;Slicer info:sliced_at;Thu 11-01-2024 23:50:39
G21                                        ; metric values 
G90                                        ; absolute positioning 
M82                                        ; set extruder to absolute mode 
M107                                       ; start with the fan off 
M140 S60   ; Start heating the bed 
G4 S60                                     ; wait 1 minute 
M104 S205 ; start heating the hot end 
M190 S60   ; wait for bed 
M109 S205 ; wait for hotend 
M300 S1000 P500                            ; BEEP heating done 
G28 X0 Y10 Z0                              ; move X/Y to min endstops 
M420 S1                                    ; Enable leveling 
M420 Z2.0                                  ; Set leveling fading height to 2 mm 
G0 Z0.15                                   ; lift nozzle a bit 
G92 E0                                     ; zero the extruded length 
G1 X50 E20 F500                            ; Extrude 20mm of filament in a 5cm line. 
G92 E0                                     ; zero the extruded length again 
G1 E-2 F500                                ; Retract a little 
G1 X50 F500                                ; wipe away from the filament line
G1 X100 F9000                              ; Quickly wipe away from the filament line
G92 E0
G92 E0
G1 F1800 E-6
;LAYER_COUNT:117
;LAYER:0
M106 S76.5
M205 X10 Y10
G1 F480 Z0.375
;MESH:pic-frame-large-outer.stl
G0 F6000 X17.098 Y167.541 Z0.375
M205 X8 Y8
;TYPE:WALL-INNER
G1 F480 Z0.3
G1 F1800 E0
G1 F1200 X17.098 Y201.481 E1.69327
G1 X191.902 Y26.677 E14.02664
G1 X162.933 Y26.677 E15.47191
G1 X157.963 Y26.677 E15.71986
G1 X17.098 Y167.541 E25.65861
M205 X10 Y10
G0 F6000 X16.698 Y167.375
M205 X8 Y8
G1 F1200 X16.698 Y202.447 E27.40836
G1 X192.868 Y26.277 E39.83811
G1 X162.933 Y26.277 E41.33157
G1 X157.797 Y26.277 E41.58781
G1 X16.698 Y167.375 E51.54307
M205 X10 Y10
G0 F6000 X16.298 Y167.209
M205 X8 Y8
;TYPE:WALL-OUTER
G1 F1200 X16.298 Y203.413 E53.34929
G1 X193.834 Y25.877 E65.87542
G1 X162.933 Y25.877 E67.41708
G1 X157.631 Y25.877 E67.68159
G1 X16.298 Y167.209 E77.65336
M205 X10 Y10
G0 F6000 X16.298 Y167.409
G0 X17.479 Y167.699
M205 X8 Y8
;TYPE:SKIN
G1 F1200 X17.479 Y172.512 E77.89349
G1 X17.479 Y200.564 E79.29301
G1 X190.986 Y27.057 E91.53486
G1 X158.121 Y27.057 E93.1745
G1 X17.479 Y167.699 E103.09756
M205 X10 Y10
G1 F1800 E97.09756
G1 F480 Z0.375
G0 F6000 X17.804 Y199.954 Z0.375
M205 X8 Y8
G1 F480 Z0.3
G1 F1800 E103.09756
G1 F1200 X17.679 Y199.829 E103.10638
M205 X10 Y10
G0 F6000 X18.087 Y199.672
M205 X8 Y8
G1 F1200 X17.679 Y199.264 E103.13516
M205 X10 Y10
G0 F6000 X17.679 Y198.698
M205 X8 Y8
G1 F1200 X18.369 Y199.389 E103.18388
M205 X10 Y10
G0 F6000 X18.652 Y199.106
M205 X8 Y8
G1 F1200 X17.679 Y198.132 E103.25257
M205 X10 Y10
G0 F6000 X17.679 Y197.567
M205 X8 Y8
G1 F1200 X18.935 Y198.823 E103.34118
M205 X10 Y10
G0 F6000 X19.218 Y198.54
M205 X8 Y8
G1 F1200 X17.679 Y197.001 E103.44977
M205 X10 Y10
G0 F6000 X17.679 Y196.435
M205 X8 Y8
G1 F1200 X19.501 Y198.257 E103.57832
M205 X10 Y10
G0 F6000 X19.784 Y197.975
M205 X8 Y8
G1 F1200 X17.679 Y195.869 E103.72687
M205 X10 Y10
G0 F6000 X17.679 Y195.304
M205 X8 Y8
G1 F1200 X20.066 Y197.692 E103.89533
M205 X10 Y10
G0 F6000 X20.349 Y197.409
M205 X8 Y8
G1 F1200 X17.679 Y194.738 E104.08374
M205 X10 Y10
G0 F6000 X17.679 Y194.172
M205 X8 Y8
G1 F1200 X20.632 Y197.126 E104.29213
M205 X10 Y10
G0 F6000 X20.915 Y196.843
M205 X8 Y8
G1 F1200 X17.679 Y193.607 E104.52045
M205 X10 Y10
G0 F6000 X17.679 Y193.041
M205 X8 Y8
G1 F1200 X21.198 Y196.56 E104.76873
M205 X10 Y10
G0 F6000 X21.481 Y196.277
M205 X8 Y8
G1 F1200 X17.679 Y192.475 E105.03698
M205 X10 Y10
G0 F6000 X17.679 Y191.91
M205 X8 Y8
G1 F1200 X21.764 Y195.995 E105.3252
M205 X10 Y10
G0 F6000 X22.046 Y195.712
M205 X8 Y8
G1 F1200 X17.679 Y191.344 E105.63335
M205 X10 Y10
G0 F6000 X17.679 Y190.778
M205 X8 Y8
G1 F1200 X22.329 Y195.429 E105.96147
M205 X10 Y10
G0 F6000 X22.612 Y195.146
M205 X8 Y8
G1 F1200 X17.679 Y190.213 E106.30952
M205 X10 Y10
G0 F6000 X17.679 Y189.647
M205 X8 Y8
G1 F1200 X22.895 Y194.863 E106.67754
M205 X10 Y10
G0 F6000 X23.178 Y194.58
M205 X8 Y8
G1 F1200 X17.679 Y189.081 E107.06552
M205 X10 Y10
G0 F6000 X17.679 Y188.516
M205 X8 Y8
G1 F1200 X23.461 Y194.298 E107.47347
M205 X10 Y10
G0 F6000 X23.743 Y194.015
M205 X8 Y8
G1 F1200 X17.679 Y187.95 E107.90136
M205 X10 Y10
G0 F6000 X17.679 Y187.384
M205 X8 Y8
G1 F1200 X24.026 Y193.732 E108.34921
M205 X10 Y10
G0 F6000 X24.309 Y193.449
M205 X8 Y8
G1 F1200 X17.679 Y186.819 E108.81699
M205 X10 Y10
G0 F6000 X17.679 Y186.253
M205 X8 Y8
G1 F1200 X24.592 Y193.166 E109.30474
M205 X10 Y10
G0 F6000 X24.875 Y192.883
M205 X8 Y8
G1 F1200 X17.679 Y185.687 E109.81245
M205 X10 Y10
G0 F6000 X17.679 Y185.121
M205 X8 Y8
G1 F1200 X25.158 Y192.601 E110.34017
M205 X10 Y10
G0 F6000 X25.44 Y192.318
M205 X8 Y8
G1 F1200 X17.679 Y184.556 E110.88779
M205 X10 Y10
G0 F6000 X17.679 Y183.99
M205 X8 Y8
G1 F1200 X25.723 Y192.035 E111.45537
M205 X10 Y10
G0 F6000 X26.006 Y191.752
M205 X8 Y8
G1 F1200 X17.679 Y183.424 E112.04292
M205 X10 Y10
G0 F6000 X17.679 Y182.859
M205 X8 Y8
G1 F1200 X26.289 Y191.469 E112.6504
M205 X10 Y10
G0 F6000 X26.572 Y191.186
M205 X8 Y8
G1 F1200 X17.679 Y182.293 E113.27785
M205 X10 Y10
G0 F6000 X17.679 Y181.727
M205 X8 Y8
G1 F1200 X26.855 Y190.903 E113.92527
M205 X10 Y10
G0 F6000 X27.138 Y190.621
M205 X8 Y8
G1 F1200 X17.679 Y181.162 E114.59265
M205 X10 Y10
G0 F6000 X17.679 Y180.596
M205 X8 Y8
G1 F1200 X27.42 Y190.338 E115.27997
M205 X10 Y10
G0 F6000 X27.703 Y190.055
M205 X8 Y8
G1 F1200 X17.679 Y180.03 E115.98725
M205 X10 Y10
G0 F6000 X17.679 Y179.465
M205 X8 Y8
G1 F1200 X27.986 Y189.772 E116.71447
M205 X10 Y10
G0 F6000 X28.269 Y189.489
M205 X8 Y8
G1 F1200 X17.679 Y178.899 E117.46165
M205 X10 Y10
G0 F6000 X17.679 Y178.333
M205 X8 Y8
G1 F1200 X28.552 Y189.206 E118.2288
M205 X10 Y10
G0 F6000 X28.835 Y188.924
M205 X8 Y8
G1 F1200 X17.679 Y177.768 E119.01591
M205 X10 Y10
G0 F6000 X17.679 Y177.202
M205 X8 Y8
G1 F1200 X29.117 Y188.641 E119.82296
M205 X10 Y10
G0 F6000 X29.4 Y188.358
M205 X8 Y8
G1 F1200 X17.679 Y176.636 E120.64998
M205 X10 Y10
G0 F6000 X17.679 Y176.071
M205 X8 Y8
G1 F1200 X29.683 Y188.075 E121.49692
M205 X10 Y10
G0 F6000 X29.966 Y187.792
M205 X8 Y8
G1 F1200 X17.679 Y175.505 E122.36384
M205 X10 Y10
G0 F6000 X17.679 Y174.939
M205 X8 Y8
G1 F1200 X30.249 Y187.509 E123.25072
M205 X10 Y10
G0 F6000 X30.532 Y187.227
M205 X8 Y8
G1 F1200 X17.679 Y174.373 E124.1576
M205 X10 Y10
G0 F6000 X17.679 Y173.808
M205 X8 Y8
G1 F1200 X30.815 Y186.944 E125.08442
M205 X10 Y10
G0 F6000 X31.097 Y186.661
M205 X8 Y8
G1 F1200 X17.679 Y173.242 E126.03117
M205 X10 Y10
G0 F6000 X17.679 Y172.676
M205 X8 Y8
G1 F1200 X31.38 Y186.378 E126.99788
M205 X10 Y10
G0 F6000 X31.663 Y186.095
M205 X8 Y8
G1 F1200 X17.679 Y172.111 E127.98453
M205 X10 Y10
G0 F6000 X17.679 Y171.545
M205 X8 Y8
G1 F1200 X31.946 Y185.812 E128.99114
M205 X10 Y10
G0 F6000 X32.229 Y185.529
M205 X8 Y8
G1 F1200 X17.679 Y170.979 E130.01772
M205 X10 Y10
G0 F6000 X17.679 Y170.414
M205 X8 Y8
G1 F1200 X32.512 Y185.247 E131.06427
M205 X10 Y10
G0 F6000 X32.794 Y184.964
M205 X8 Y8
G1 F1200 X17.679 Y169.848 E132.13075
M205 X10 Y10
G0 F6000 X17.679 Y169.282
M205 X8 Y8
G1 F1200 X33.077 Y184.681 E133.2172
M205 X10 Y10
G0 F6000 X33.36 Y184.398
M205 X8 Y8
G1 F1200 X17.679 Y168.717 E134.32358
M205 X10 Y10
G0 F6000 X17.679 Y168.151
M205 X8 Y8
G1 F1200 X33.643 Y184.115 E135.44992
M205 X10 Y10
G0 F6000 X33.926 Y183.832
M205 X8 Y8
G1 F1200 X17.776 Y167.683 E136.58936
M205 X10 Y10
G0 F6000 X18.059 Y167.4
M205 X8 Y8
G1 F1200 X34.209 Y183.55 E137.72883
M205 X10 Y10
G0 F6000 X34.491 Y183.267
M205 X8 Y8
G1 F1200 X18.342 Y167.117 E138.86826
M205 X10 Y10
G0 F6000 X18.625 Y166.834
M205 X8 Y8
G1 F1200 X34.774 Y182.984 E140.0077
M205 X10 Y10
G0 F6000 X35.057 Y182.701
M205 X8 Y8
G1 F1200 X18.908 Y166.551 E141.14713
M205 X10 Y10
G0 F6000 X19.19 Y166.269
M205 X8 Y8
G1 F1200 X35.34 Y182.418 E142.28657
M205 X10 Y10
G0 F6000 X35.623 Y182.135
M205 X8 Y8
G1 F1200 X19.473 Y165.986 E143.426
M205 X10 Y10
G0 F6000 X19.756 Y165.703
M205 X8 Y8
G1 F1200 X35.906 Y181.853 E144.56547
M205 X10 Y10
G0 F6000 X36.189 Y181.57
M205 X8 Y8
G1 F1200 X20.039 Y165.42 E145.70494
M205 X10 Y10
G0 F6000 X20.322 Y165.137
M205 X8 Y8
G1 F1200 X36.471 Y181.287 E146.84437
M205 X10 Y10
G0 F6000 X36.754 Y181.004
M205 X8 Y8
G1 F1200 X20.605 Y164.854 E147.98381
M205 X10 Y10
G0 F6000 X20.887 Y164.572
M205 X8 Y8
G1 F1200 X37.037 Y180.721 E149.12324
M205 X10 Y10
G0 F6000 X37.32 Y180.438
M205 X8 Y8
G1 F1200 X21.17 Y164.289 E150.26268
M205 X10 Y10
G0 F6000 X21.453 Y164.006
M205 X8 Y8
G1 F1200 X37.603 Y180.155 E151.40211
M205 X10 Y10
G0 F6000 X37.886 Y179.873
M205 X8 Y8
G1 F1200 X21.736 Y163.723 E152.54158
M205 X10 Y10
G0 F6000 X22.019 Y163.44
M205 X8 Y8
G1 F1200 X38.168 Y179.59 E153.68102
M205 X10 Y10
G0 F6000 X38.451 Y179.307
M205 X8 Y8
G1 F1200 X22.302 Y163.157 E154.82045
M205 X10 Y10
G0 F6000 X22.584 Y162.874
M205 X8 Y8
G1 F1200 X38.734 Y179.024 E155.95992
M205 X10 Y10
G0 F6000 X39.017 Y178.741
M205 X8 Y8
G1 F1200 X22.867 Y162.592 E157.09935
M205 X10 Y10
G0 F6000 X23.15 Y162.309
M205 X8 Y8
G1 F1200 X39.3 Y178.458 E158.23879
M205 X10 Y10
G0 F6000 X39.583 Y178.176
M205 X8 Y8
G1 F1200 X23.433 Y162.026 E159.37826
M205 X10 Y10
G0 F6000 X23.716 Y161.743
M205 X8 Y8
G1 F1200 X39.865 Y177.893 E160.51769
M205 X10 Y10
G0 F6000 X40.148 Y177.61
M205 X8 Y8
G1 F1200 X23.999 Y161.46 E161.65713
M205 X10 Y10
G0 F6000 X24.282 Y161.177
M205 X8 Y8
G1 F1200 X40.431 Y177.327 E162.79656
M205 X10 Y10
G0 F6000 X40.714 Y177.044
M205 X8 Y8
G1 F1200 X24.564 Y160.895 E163.936
M205 X10 Y10
G0 F6000 X24.847 Y160.612
M205 X8 Y8
G1 F1200 X40.997 Y176.761 E165.07543
M205 X10 Y10
G0 F6000 X41.28 Y176.479
M205 X8 Y8
G1 F1200 X25.13 Y160.329 E166.2149
M205 X10 Y10
G0 F6000 X25.413 Y160.046
M205 X8 Y8
G1 F1200 X41.563 Y176.196 E167.35437
M205 X10 Y10
G0 F6000 X41.845 Y175.913
M205 X8 Y8
G1 F1200 X25.696 Y159.763 E168.49381
M205 X10 Y10
G0 F6000 X25.979 Y159.48
M205 X8 Y8
G1 F1200 X42.128 Y175.63 E169.63324
M205 X10 Y10
G0 F6000 X42.411 Y175.347
M205 X8 Y8
G1 F1200 X26.261 Y159.198 E170.77267
M205 X10 Y10
G0 F6000 X26.544 Y158.915
M205 X8 Y8
G1 F1200 X42.694 Y175.064 E171.91211
M205 X10 Y10
G0 F6000 X42.977 Y174.781
M205 X8 Y8
G1 F1200 X26.827 Y158.632 E173.05154
M205 X10 Y10
G0 F6000 X27.11 Y158.349
M205 X8 Y8
G1 F1200 X43.26 Y174.499 E174.19101
M205 X10 Y10
G0 F6000 X43.542 Y174.216
M205 X8 Y8
G1 F1200 X27.393 Y158.066 E175.33045
M205 X10 Y10
G0 F6000 X27.676 Y157.783
M205 X8 Y8
G1 F1200 X43.825 Y173.933 E176.46988
M205 X10 Y10
G0 F6000 X44.108 Y173.65
M205 X8 Y8
G1 F1200 X27.959 Y157.5 E177.60932
M205 X10 Y10
G0 F6000 X28.241 Y157.218
M205 X8 Y8
G1 F1200 X44.391 Y173.367 E178.74875
M205 X10 Y10
G0 F6000 X44.674 Y173.084
M205 X8 Y8
G1 F1200 X28.524 Y156.935 E179.88818
M205 X10 Y10
G0 F6000 X28.807 Y156.652
M205 X8 Y8
G1 F1200 X44.957 Y172.802 E181.02765
M205 X10 Y10
G0 F6000 X45.239 Y172.519
M205 X8 Y8
G1 F1200 X29.09 Y156.369 E182.16709
M205 X10 Y10
G0 F6000 X29.373 Y156.086
M205 X8 Y8
G1 F1200 X45.522 Y172.236 E183.30652
M205 X10 Y10
G0 F6000 X45.805 Y171.953
M205 X8 Y8
G1 F1200 X29.656 Y155.803 E184.44596
M205 X10 Y10
G0 F6000 X29.938 Y155.521
M205 X8 Y8
G1 F1200 X46.088 Y171.67 E185.58539
M205 X10 Y10
G0 F6000 X46.371 Y171.387
M205 X8 Y8
G1 F1200 X30.221 Y155.238 E186.72483
M205 X10 Y10
G0 F6000 X30.504 Y154.955
M205 X8 Y8
G1 F1200 X46.654 Y171.104 E187.86426
M205 X10 Y10
G0 F6000 X46.937 Y170.822
M205 X8 Y8
G1 F1200 X30.787 Y154.672 E189.00373
M205 X10 Y10
G0 F6000 X31.07 Y154.389
M205 X8 Y8
G1 F1200 X47.219 Y170.539 E190.14317
M205 X10 Y10
G0 F6000 X47.502 Y170.256
M205 X8 Y8
G1 F1200 X31.353 Y154.106 E191.2826
M205 X10 Y10
G0 F6000 X31.635 Y153.824
M205 X8 Y8
G1 F1200 X47.785 Y169.973 E192.42203
M205 X10 Y10
G0 F6000 X48.068 Y169.69
M205 X8 Y8
G1 F1200 X31.918 Y153.541 E193.56147
M205 X10 Y10
G0 F6000 X32.201 Y153.258
M205 X8 Y8
G1 F1200 X48.351 Y169.407 E194.7009
M205 X10 Y10
G0 F6000 X48.634 Y169.125
M205 X8 Y8
G1 F1200 X32.484 Y152.975 E195.84037
M205 X10 Y10
G0 F6000 X32.767 Y152.692
M205 X8 Y8
G1 F1200 X48.916 Y168.842 E196.97981
M205 X10 Y10
G0 F6000 X49.199 Y168.559
M205 X8 Y8
G1 F1200 X33.05 Y152.409 E198.11924
M205 X10 Y10
G0 F6000 X33.333 Y152.126
M205 X8 Y8
G1 F1200 X49.482 Y168.276 E199.25868
M205 X10 Y10
G0 F6000 X49.765 Y167.993
M205 X8 Y8
G1 F1200 X33.615 Y151.844 E200.39811
M205 X10 Y10
G0 F6000 X33.898 Y151.561
M205 X8 Y8
G1 F1200 X50.048 Y167.71 E201.53755
M205 X10 Y10
G0 F6000 X50.331 Y167.428
M205 X8 Y8
G1 F1200 X34.181 Y151.278 E202.67702
M205 X10 Y10
G0 F6000 X34.464 Y150.995
M205 X8 Y8
G1 F1200 X50.613 Y167.145 E203.81645
M205 X10 Y10
G0 F6000 X50.896 Y166.862
M205 X8 Y8
G1 F1200 X34.747 Y150.712 E204.95588
M205 X10 Y10
G0 F6000 X35.03 Y150.429
M205 X8 Y8
G1 F1200 X51.179 Y166.579 E206.09532
M205 X10 Y10
G0 F6000 X51.462 Y166.296
M205 X8 Y8
G1 F1200 X35.312 Y150.147 E207.23475
M205 X10 Y10
G0 F6000 X35.595 Y149.864
M205 X8 Y8
G1 F1200 X51.745 Y166.013 E208.37419
M205 X10 Y10
G0 F6000 X52.028 Y165.73
M205 X8 Y8
G1 F1200 X35.878 Y149.581 E209.51362
M205 X10 Y10
G0 F6000 X36.161 Y149.298
M205 X8 Y8
G1 F1200 X52.311 Y165.448 E210.65309
M205 X10 Y10
G0 F6000 X52.593 Y165.165
M205 X8 Y8
G1 F1200 X36.444 Y149.015 E211.79253
M205 X10 Y10
G0 F6000 X36.727 Y148.732
M205 X8 Y8
G1 F1200 X52.876 Y164.882 E212.93196
M205 X10 Y10
G0 F6000 X53.159 Y164.599
M205 X8 Y8
G1 F1200 X37.009 Y148.449 E214.07143
M205 X10 Y10
G0 F6000 X37.292 Y148.167
M205 X8 Y8
G1 F1200 X53.442 Y164.316 E215.21086
M205 X10 Y10
G0 F6000 X53.725 Y164.033
M205 X8 Y8
G1 F1200 X37.575 Y147.884 E216.3503
M205 X10 Y10
G0 F6000 X37.858 Y147.601
M205 X8 Y8
G1 F1200 X54.008 Y163.751 E217.48977
M205 X10 Y10
G0 F6000 X54.29 Y163.468
M205 X8 Y8
G1 F1200 X38.141 Y147.318 E218.6292
M205 X10 Y10
G0 F6000 X38.424 Y147.035
M205 X8 Y8
G1 F1200 X54.573 Y163.185 E219.76864
M205 X10 Y10
G0 F6000 X54.856 Y162.902
M205 X8 Y8
G1 F1200 X38.707 Y146.752 E220.90807
M205 X10 Y10
G0 F6000 X38.989 Y146.47
M205 X8 Y8
G1 F1200 X55.139 Y162.619 E222.04751
M205 X10 Y10
G0 F6000 X55.422 Y162.336
M205 X8 Y8
G1 F1200 X39.272 Y146.187 E223.18694
M205 X10 Y10
G0 F6000 X39.555 Y145.904
M205 X8 Y8
G1 F1200 X55.705 Y162.054 E224.32641
M205 X10 Y10
G0 F6000 X55.988 Y161.771
M205 X8 Y8
G1 F1200 X39.838 Y145.621 E225.46588
M205 X10 Y10
G0 F6000 X40.121 Y145.338
M205 X8 Y8
G1 F1200 X56.27 Y161.488 E226.60531
M205 X10 Y10
G0 F6000 X56.553 Y161.205
M205 X8 Y8
G1 F1200 X40.404 Y145.055 E227.74475
M205 X10 Y10
G0 F6000 X40.686 Y144.773
M205 X8 Y8
G1 F1200 X56.836 Y160.922 E228.88418
M205 X10 Y10
G0 F6000 X57.119 Y160.639
M205 X8 Y8
G1 F1200 X40.969 Y144.49 E230.02362
M205 X10 Y10
G0 F6000 X41.252 Y144.207
M205 X8 Y8
G1 F1200 X57.402 Y160.356 E231.16305
M205 X10 Y10
G0 F6000 X57.685 Y160.074
M205 X8 Y8
G1 F1200 X41.535 Y143.924 E232.30252
M205 X10 Y10
G0 F6000 X41.818 Y143.641
M205 X8 Y8
